offer-calculator/svg/mvc.svg

<svg width="586" height="652"><path fill="#c4c4c4" stroke="#090" stroke-linecap="round" stroke-linejoin="round" d="M179.35 132.09h100v50h-100zm0 0"/><text x="213.01" y="161.83" font-family="Helvetica" font-size="12">Model</text><path fill="#c4c4c4" stroke="#090" stroke-linecap="round" stroke-linejoin="round" d="M225 550h100v50H225zm0 0"/><text x="262.1" y="579.74" font-family="Helvetica" font-size="12">View</text><path fill="#c4c4c4" stroke="#090" stroke-linecap="round" stroke-linejoin="round" d="M414.22 444.17h100v50h-100zm0 0"/><text x="438.21" y="473.91" font-family="Helvetica" font-size="12">Controller</text><path fill="#c4c4c4" stroke="#090" stroke-linecap="round" stroke-linejoin="round" d="M50 350h100v50H50zm0 0"/><text x="87.33" y="379.74" font-family="Helvetica" font-size="12">User</text><path fill="none" stroke="#090" stroke-linecap="round" stroke-linejoin="round" d="M150 387.5l264.22 69.17m-8.47.79l8.47-.79-7-4.84m7-7.66L179.35 182.09m7.51 4.01l-7.51-4.01 3.17 7.9"/><path fill="#c4c4c4" stroke="#090" stroke-linecap="round" stroke-linejoin="round" d="M175 25h100v50H175zm0 0"/><text x="198.65" y="54.74" font-family="Helvetica" font-size="12">DataBase</text><path fill="none" stroke="#090" stroke-linecap="round" stroke-linejoin="round" d="M204.35 132.09L200 75m3.51 7.76L200 75l-2.3 8.2M225 75l4.35 57.09m-3.51-7.76l3.51 7.76 2.3-8.2m22.7 8.2L250 75m3.51 7.76L250 75l-2.3 8.2m31.65 98.89l159.87 262.08m-6.65-5.31l6.65 5.31-1.68-8.34m1.68 58.34L325 562.5m5.37-6.61L325 562.5l8.36-1.61M250 550L125 400m7.36 4.28L125 400l2.88 8.01"/></svg>

<?xml version="1.0" encoding="UTF-8"?>
<svg width="586" height="652" xmlns="http://www.w3.org/2000/svg" xmlns:xlink="http://www.w3.org/1999/xlink"><path d="M 179.35 132.09 L 279.35 132.09 L 279.35 182.09 L 179.35 182.09 Z M 179.35 132.09" stroke-width="1.00" stroke="#009900" stroke-linecap="round" stroke-linejoin="round" fill="#c4c4c4"  /><text x="213.01" y="161.83" font-family="Helvetica" font-size="12.00px" fill="black" opacity="1.00" >Model</text><path d="M 225.00 550.00 L 325.00 550.00 L 325.00 600.00 L 225.00 600.00 Z M 225.00 550.00" stroke-width="1.00" stroke="#009900" stroke-linecap="round" stroke-linejoin="round" fill="#c4c4c4"  /><text x="262.10" y="579.74" font-family="Helvetica" font-size="12.00px" fill="black" opacity="1.00" >View</text><path d="M 414.22 444.17 L 514.22 444.17 L 514.22 494.17 L 414.22 494.17 Z M 414.22 444.17" stroke-width="1.00" stroke="#009900" stroke-linecap="round" stroke-linejoin="round" fill="#c4c4c4"  /><text x="438.21" y="473.91" font-family="Helvetica" font-size="12.00px" fill="black" opacity="1.00" >Controller</text><path d="M 50.00 350.00 L 150.00 350.00 L 150.00 400.00 L 50.00 400.00 Z M 50.00 350.00" stroke-width="1.00" stroke="#009900" stroke-linecap="round" stroke-linejoin="round" fill="#c4c4c4"  /><text x="87.33" y="379.74" font-family="Helvetica" font-size="12.00px" fill="black" opacity="1.00" >User</text><path d="M 150.00 387.50 L 414.22 456.67" stroke-width="1.00" stroke="#009900" stroke-linecap="round" stroke-linejoin="round" fill="none"  /><path d="M 405.75 457.46 L 414.22 456.67 L 407.22 451.83" stroke-width="1.00" stroke="#009900" stroke-linecap="round" stroke-linejoin="round" fill="none"  /><path d="M 414.22 444.17 L 179.35 182.09" stroke-width="1.00" stroke="#009900" stroke-linecap="round" stroke-linejoin="round" fill="none"  /><path d="M 186.86 186.10 L 179.35 182.09 L 182.52 189.99" stroke-width="1.00" stroke="#009900" stroke-linecap="round" stroke-linejoin="round" fill="none"  /><path d="M 175.00 25.00 L 275.00 25.00 L 275.00 75.00 L 175.00 75.00 Z M 175.00 25.00" stroke-width="1.00" stroke="#009900" stroke-linecap="round" stroke-linejoin="round" fill="#c4c4c4"  /><text x="198.65" y="54.74" font-family="Helvetica" font-size="12.00px" fill="black" opacity="1.00" >DataBase</text><path d="M 204.35 132.09 L 200.00 75.00" stroke-width="1.00" stroke="#009900" stroke-linecap="round" stroke-linejoin="round" fill="none"  /><path d="M 203.51 82.76 L 200.00 75.00 L 197.70 83.20" stroke-width="1.00" stroke="#009900" stroke-linecap="round" stroke-linejoin="round" fill="none"  /><path d="M 225.00 75.00 L 229.35 132.09" stroke-width="1.00" stroke="#009900" stroke-linecap="round" stroke-linejoin="round" fill="none"  /><path d="M 225.84 124.33 L 229.35 132.09 L 231.65 123.89" stroke-width="1.00" stroke="#009900" stroke-linecap="round" stroke-linejoin="round" fill="none"  /><path d="M 254.35 132.09 L 250.00 75.00" stroke-width="1.00" stroke="#009900" stroke-linecap="round" stroke-linejoin="round" fill="none"  /><path d="M 253.51 82.76 L 250.00 75.00 L 247.70 83.20" stroke-width="1.00" stroke="#009900" stroke-linecap="round" stroke-linejoin="round" fill="none"  /><path d="M 279.35 182.09 L 439.22 444.17" stroke-width="1.00" stroke="#009900" stroke-linecap="round" stroke-linejoin="round" fill="none"  /><path d="M 432.57 438.86 L 439.22 444.17 L 437.54 435.83" stroke-width="1.00" stroke="#009900" stroke-linecap="round" stroke-linejoin="round" fill="none"  /><path d="M 439.22 494.17 L 325.00 562.50" stroke-width="1.00" stroke="#009900" stroke-linecap="round" stroke-linejoin="round" fill="none"  /><path d="M 330.37 555.89 L 325.00 562.50 L 333.36 560.89" stroke-width="1.00" stroke="#009900" stroke-linecap="round" stroke-linejoin="round" fill="none"  /><path d="M 250.00 550.00 L 125.00 400.00" stroke-width="1.00" stroke="#009900" stroke-linecap="round" stroke-linejoin="round" fill="none"  /><path d="M 132.36 404.28 L 125.00 400.00 L 127.88 408.01" stroke-width="1.00" stroke="#009900" stroke-linecap="round" stroke-linejoin="round" fill="none"  /></svg>
